/* XPM */
static char * hide_active_xpm[] = {
"18 16 5 1",
" 	c None",
".	c #D6CBBB s active_color_2",
"+	c #C4B8A6 s active_shadow_2",
"@	c #000000 s active_border_color",
"#	c #E3DAC9 s active_hilight_2",
"..................",
"..++++++++++++++..",
"..+@@@@@@@@@@@@#..",
"..+@##########@#..",
"..+@#........+@#..",
"..+@#........+@#..",
"..+@#........+@#..",
"..+@#........+@#..",
"..+@#........+@#..",
"..+@#+++++++++@#..",
"..+@@@@@@@@@@@@#..",
"..+@##########@#..",
"..+@#+++++++++@#..",
"..+@@@@@@@@@@@@#..",
"..+#############..",
".................."};
