/* XPM */
static char * close_pressed_xpm[] = {
"18 24 5 1",
"       c None",
".      c #000000 s active_border_color",
"+      c #1E1E1E s active_shadow_2",
"@      c #2F2F2F s active_color_2",
"#      c #555555 s active_hilight_2",
"                  ",
"                  ",
"                  ",
"                  ",
"                  ",
"                  ",
"  .++++++++++++++#",
"  .+@@@@@@@@@@@@@#",
"  .+@@@@@@@@@@@@@#",
"  .+@@@@@@@@@@@@@#",
"  .+@@@..@@@@..@@#",
"  .+@@@@..@@..@@@#",
"  .+@@@@@....@@@@#",
"  .+@@@@@@..@@@@@#",
"  .+@@@@@....@@@@#",
"  .+@@@@..@@..@@@#",
"  .+@@@..@@@@..@@#",
"  .+@@@@@@@@@@@@@#",
"  .+@@@@@@@@@@@@@#",
"  .###############",
"                  ",
"                  ",
"                  ",
"                  "};
