/* XPM */
static char * close_inactive_xpm[] = {
"18 24 6 1",
"       c None",
".      c #000000 s inactive_border_color",
"+      c #3C3C3C s inactive_hilight_2",
"@      c #2F2F2F s inactive_color_2",
"#      c #1E1E1E s inactive_shadow_2",
"%      c #808080 s inactive_text_color",
"                  ",
"                  ",
"                  ",
"                  ",
"                  ",
"                  ",
"  +++++++++++++++.",
"  +@@@@@@@@@@@@@#.",
"  +@@@@@@@@@@@@@#.",
"  +@@@%%@@@@%%@@#.",
"  +@@@@%%@@%%@@@#.",
"  +@@@@@%%%%@@@@#.",
"  +@@@@@@%%@@@@@#.",
"  +@@@@@%%%%@@@@#.",
"  +@@@@%%@@%%@@@#.",
"  +@@@%%@@@@%%@@#.",
"  +@@@@@@@@@@@@@#.",
"  +@@@@@@@@@@@@@#.",
"  +##############.",
"  ................",
"                  ",
"                  ",
"                  ",
"                  "};

