/* XPM */
static char * maximize_toggled_active_xpm[] = {
"16 24 6 1",
"       c None",
".      c #000000 s active_border_color",
"+      c #555555 s active_hilight_2",
"@      c #2F2F2F s active_color_2",
"#      c #1E1E1E s active_shadow_2",
"%      c #FFFFFF s active_text_color",
"                ",
"                ",
"                ",
"                ",
"                ",
"                ",
"+++++++++++++++.",
"+@@@@@@@@@@@@@#.",
"+@@@@%%%%%%@@@#.",
"+@@@@%%%%%%@@@#.",
"+@@@@%@@@@%@@@#.",
"+@@%%%%%%@%@@@#.",
"+@@%%%%%%@%@@@#.",
"+@@%@@@@%%%@@@#.",
"+@@%@@@@%@@@@@#.",
"+@@%@@@@%@@@@@#.",
"+@@%%%%%%@@@@@#.",
"+@@@@@@@@@@@@@#.",
"+##############.",
"................",
"                ",
"                ",
"                ",
"                "};

